assets/logo-bw.svg

<svg width="183" height="183" viewBox="0 0 183 183" fill="none" xmlns="http://www.w3.org/2000/svg">
<g filter="url(#filter0_d)">
<path d="M117.506 33.3864C121.794 33.393 125.752 35.6863 127.889 39.4024L154.199 85.1347C156.337 88.8508 156.33 93.4251 154.181 97.1347L127.73 142.786C125.581 146.495 121.616 148.776 117.329 148.77L64.5687 148.689C60.2815 148.682 56.3235 146.389 54.1856 142.673L27.8757 96.9404C25.7379 93.2243 25.7449 88.65 27.8942 84.9404L54.3446 39.2893C56.4939 35.5798 60.4589 33.2987 64.7461 33.3053L117.506 33.3864Z" fill="white"/>
</g>
<path d="M94.029 99.2257L118.357 141.246C119.708 143.58 118.024 146.5 115.328 146.5H66.6722C63.9761 146.5 62.2924 143.58 63.6432 141.246L87.971 99.2257C89.3191 96.8972 92.6809 96.8972 94.029 99.2257Z" fill="#D3D3D3" stroke="white" stroke-width="3"/>
<path d="M87.971 82.7743L63.6432 40.7536C62.2924 38.4203 63.9761 35.5 66.6722 35.5L115.328 35.5C118.024 35.5 119.708 38.4203 118.357 40.7536L94.029 82.7743C92.6809 85.1028 89.3191 85.1028 87.971 82.7743Z" fill="#858585" stroke="white" stroke-width="3"/>
<path d="M127.029 42.2257L151.357 84.2464C152.708 86.5797 151.024 89.5 148.328 89.5H99.6722C96.9761 89.5 95.2924 86.5797 96.6432 84.2464L120.971 42.2257C122.319 39.8972 125.681 39.8972 127.029 42.2257Z" fill="#A6A6A6" stroke="white" stroke-width="3"/>
<path d="M120.971 139.774L96.6432 97.7536C95.2924 95.4203 96.9761 92.5 99.6722 92.5H148.328C151.024 92.5 152.708 95.4203 151.357 97.7536L127.029 139.774C125.681 142.103 122.319 142.103 120.971 139.774Z" fill="#898989" stroke="white" stroke-width="3"/>
<mask id="path-6-inside-1" fill="white">
<path fill-rule="evenodd" clip-rule="evenodd" d="M88.9695 94.5073C90.2255 92.3378 90.2255 89.6622 88.9695 87.4927L64.058 44.4638C61.3618 39.8068 54.6382 39.8068 51.942 44.4638L27.0305 87.4927C25.7745 89.6622 25.7745 92.3378 27.0305 94.5073L51.942 137.536C54.6382 142.193 61.3618 142.193 64.058 137.536L88.9695 94.5073Z"/>
</mask>
<path fill-rule="evenodd" clip-rule="evenodd" d="M88.9695 94.5073C90.2255 92.3378 90.2255 89.6622 88.9695 87.4927L64.058 44.4638C61.3618 39.8068 54.6382 39.8068 51.942 44.4638L27.0305 87.4927C25.7745 89.6622 25.7745 92.3378 27.0305 94.5073L51.942 137.536C54.6382 142.193 61.3618 142.193 64.058 137.536L88.9695 94.5073Z" fill="#656565"/>
<path d="M27.0305 87.4927L23.5688 85.4886L27.0305 87.4927ZM27.0305 94.5073L23.5688 96.5114L27.0305 94.5073ZM88.9695 87.4927L92.4312 85.4886L88.9695 87.4927ZM88.9695 94.5073L92.4312 96.5114L88.9695 94.5073ZM64.058 44.4638L60.5963 46.4679L64.058 44.4638ZM60.5963 46.4679L85.5078 89.4969L92.4312 85.4886L67.5197 42.4596L60.5963 46.4679ZM30.4922 89.4969L55.4037 46.4679L48.4803 42.4596L23.5688 85.4886L30.4922 89.4969ZM55.4037 135.532L30.4922 92.5031L23.5688 96.5114L48.4803 139.54L55.4037 135.532ZM85.5078 92.5031L60.5963 135.532L67.5197 139.54L92.4312 96.5114L85.5078 92.5031ZM48.4803 139.54C52.7171 146.858 63.2829 146.859 67.5197 139.54L60.5963 135.532C59.4408 137.528 56.5592 137.528 55.4037 135.532L48.4803 139.54ZM23.5688 85.4886C21.5951 88.8978 21.5951 93.1022 23.5688 96.5114L30.4922 92.5031C29.9539 91.5733 29.9539 90.4267 30.4922 89.4969L23.5688 85.4886ZM85.5078 89.4969C86.0461 90.4267 86.0461 91.5733 85.5078 92.5031L92.4312 96.5114C94.4049 93.1022 94.4049 88.8978 92.4312 85.4886L85.5078 89.4969ZM67.5197 42.4596C63.2829 35.1415 52.7171 35.1415 48.4803 42.4596L55.4037 46.4679C56.5592 44.4721 59.4408 44.4721 60.5963 46.4679L67.5197 42.4596Z" fill="white" mask="url(#path-6-inside-1)"/>
<defs>
<filter id="filter0_d" x="4.6049" y="3.04454" width="172.865" height="178.01" filterUnits="userSpaceOnUse" color-interpolation-filters="sRGB">
<feFlood flood-opacity="0" result="BackgroundImageFix"/>
<feColorMatrix in="SourceAlpha" type="matrix" values="0 0 0 0 0 0 0 0 0 0 0 0 0 0 0 0 0 0 127 0"/>
<feOffset dy="1.01203"/>
<feGaussianBlur stdDeviation="2.02406"/>
<feColorMatrix type="matrix" values="0 0 0 0 0 0 0 0 0 0 0 0 0 0 0 0 0 0 0.25 0"/>
<feBlend mode="normal" in2="BackgroundImageFix" result="effect1_dropShadow"/>
<feBlend mode="normal" in="SourceGraphic" in2="effect1_dropShadow" result="shape"/>
</filter>
</defs>
</svg>

<svg fill="none" xmlns="http://www.w3.org/2000/svg" viewBox="0 0 183 183"><g filter="url(#filter0_d)"><path d="M117.506 33.386c4.288.007 8.246 2.3 10.383 6.016l26.31 45.733a12 12 0 01-.018 12l-26.451 45.651a12.001 12.001 0 01-10.401 5.984l-52.76-.081a12.001 12.001 0 01-10.383-6.016L27.876 96.94a12 12 0 01.018-12l26.45-45.65a12 12 0 0110.402-5.985l52.76.081z" fill="#fff"/></g><path d="M94.029 99.226l24.328 42.02c1.351 2.334-.333 5.254-3.029 5.254H66.672c-2.696 0-4.38-2.92-3.029-5.254l24.328-42.02c1.348-2.329 4.71-2.329 6.058 0z" fill="#D6D6D6" stroke="#fff" stroke-width="3"/><path d="M87.971 82.774l-24.328-42.02c-1.35-2.334.333-5.254 3.03-5.254h48.655c2.696 0 4.38 2.92 3.029 5.254l-24.328 42.02c-1.348 2.329-4.71 2.329-6.058 0z" fill="gray" stroke="#fff" stroke-width="3"/><path d="M127.029 42.226l24.328 42.02c1.351 2.334-.333 5.254-3.029 5.254H99.672c-2.696 0-4.38-2.92-3.029-5.254l24.328-42.02c1.348-2.329 4.71-2.329 6.058 0z" fill="#A6A6A6" stroke="#fff" stroke-width="3"/><path d="M120.971 139.774l-24.328-42.02c-1.35-2.334.333-5.254 3.03-5.254h48.655c2.696 0 4.38 2.92 3.029 5.254l-24.328 42.02c-1.348 2.329-4.71 2.329-6.058 0z" fill="gray" stroke="#fff" stroke-width="3"/><path fill-rule="evenodd" clip-rule="evenodd" d="M87.703 93.773a5 5 0 000-4.79l-23.788-43.59c-1.895-3.474-6.882-3.474-8.778 0L31.35 88.983a5 5 0 000 4.79l23.787 43.59c1.896 3.473 6.883 3.473 8.778 0l23.788-43.59z" fill="#5F5F5F"/><defs><filter id="filter0_d" x="4.605" y="3.045" width="172.865" height="178.01" filterUnits="userSpaceOnUse" color-interpolation-filters="sRGB"><feFlood flood-opacity="0" result="BackgroundImageFix"/><feColorMatrix in="SourceAlpha" values="0 0 0 0 0 0 0 0 0 0 0 0 0 0 0 0 0 0 127 0"/><feOffset dy="1.012"/><feGaussianBlur stdDeviation="2.024"/><feColorMatrix values="0 0 0 0 0 0 0 0 0 0 0 0 0 0 0 0 0 0 0.25 0"/><feBlend in2="BackgroundImageFix" result="effect1_dropShadow"/><feBlend in="SourceGraphic" in2="effect1_dropShadow" result="shape"/></filter></defs></svg>
